( Made using CamBam - http://www.cambam.co.uk )
( edm-bam 11/16/2013 7:05:00 PM )
( T0 : 0.2 )
G21 G90 G64 G40
G0 Z3.0
( T0 : 0.2 )
T0 M6
( Profile1 )
G17
M3 S1000
G0 X207.0 Y51.9
G0 Z1.4
G1 F300.0 Z0.0
G1 F800.0 X211.0
G0 Z3.0
G0 X207.1 Y52.0
G0 Z1.4
G1 F300.0 Z0.0
G1 F800.0 Y62.0
G0 Z3.0
G0 X207.0 Y61.9
G0 Z1.4
G1 F300.0 Z0.0
G1 F800.0 X211.0
G0 Z3.0
G0 X221.0 Y62.1
G0 Z1.4
G1 F300.0 Z0.0
G1 F800.0 X217.0
G0 Z3.0
G0 X221.1 Y62.0
G0 Z1.4
G1 F300.0 Z0.0
G1 F800.0 Y82.0
G0 Z3.0
G0 X221.0 Y82.1
G0 Z1.4
G1 F300.0 Z0.0
G1 F800.0 X217.0
G0 Z3.0
G0 X212.0 Y77.1
G0 Z1.4
G1 F300.0 Z0.0
G1 F800.0 X4.0
G0 Z3.0
G0 X4.1 Y77.0
G0 Z1.4
G1 F300.0 Z0.0
G1 F800.0 Y87.0
G0 Z3.0
G0 X8.0 Y87.1
G0 Z1.4
G1 F300.0 Z0.0
G1 F800.0 X4.0
G0 Z3.0
G0 X8.1 Y87.0
G0 Z1.4
G1 F300.0 Z0.0
G1 F800.0 Y97.0
G0 Z3.0
G0 X8.0 Y97.1
G0 Z1.4
G1 F300.0 Z0.0
G1 F800.0 X4.0
G0 Z3.0
G0 Y106.9
G0 Z1.4
G1 F300.0 Z0.0
G1 F800.0 X212.0
G0 Z3.0
G0 X211.9 Y107.0
G0 Z1.4
G1 F300.0 Z0.0
G1 F800.0 Y97.0
G0 Z3.0
G0 X208.0 Y96.9
G0 Z1.4
G1 F300.0 Z0.0
G1 F800.0 X212.0
G0 Z3.0
G0 X208.1 Y87.0
G0 Z1.4
G1 F300.0 Z0.0
G1 F800.0 Y97.0
G0 Z3.0
G0 X208.0 Y86.9
G0 Z1.4
G1 F300.0 Z0.0
G1 F800.0 X212.0
G0 Z3.0
G0 X212.1 Y77.0
G0 Z1.4
G1 F300.0 Z0.0
G1 F800.0 Y87.0
G0 Z3.0
G0 X210.9 Y72.0
G0 Z1.4
G1 F300.0 Z0.0
G1 F800.0 Y62.0
G0 Z3.0
G0 X211.1 Y42.0
G0 Z1.4
G1 F300.0 Z0.0
G1 F800.0 Y52.0
G0 Z3.0
G0 X212.0 Y38.1
G0 Z1.4
G1 F300.0 Z0.0
G1 F800.0 X4.0
G0 Z3.0
G0 X3.9 Y38.0
G0 Z1.4
G1 F300.0 Z0.0
G1 F800.0 Y28.0
G0 Z3.0
G0 X8.0 Y28.1
G0 Z1.4
G1 F300.0 Z0.0
G1 F800.0 X4.0
G0 Z3.0
G0 X3.0 Y41.9
G0 Z1.4
G1 F300.0 Z0.0
G1 F800.0 X211.0
G0 Z3.0
G0 X211.9 Y38.0
G0 Z1.4
G1 F300.0 Z0.0
G1 F800.0 Y28.0
G0 Z3.0
G0 X208.0 Y27.9
G0 Z1.4
G1 F300.0 Z0.0
G1 F800.0 X212.0
G0 Z3.0
G0 X216.9 Y30.0
G0 Z1.4
G1 F300.0 Z0.0
G1 F800.0 Y20.0
G0 Z3.0
G0 X221.0 Y20.1
G0 Z1.4
G1 F300.0 Z0.0
G1 F800.0 X217.0
G0 Z3.0
G0 Y29.9
G0 Z1.4
G1 F300.0 Z0.0
G1 F800.0 X425.0
G0 Z3.0
G0 X424.9 Y30.0
G0 Z1.4
G1 F300.0 Z0.0
G1 F800.0 Y20.0
G0 Z3.0
G0 X421.0 Y19.9
G0 Z1.4
G1 F300.0 Z0.0
G1 F800.0 X425.0
G0 Z3.0
G0 X425.1 Y37.0
G0 Z1.4
G1 F300.0 Z0.0
G1 F800.0 Y62.0
G0 Z3.0
G0 X421.1
G0 Z1.4
G1 F300.0 Z0.0
G1 F800.0 Y82.0
G0 Z3.0
G0 X421.0 Y81.9
G0 Z1.4
G1 F300.0 Z0.0
G1 F800.0 X425.0
G0 Z3.0
G0 X421.0 Y61.9
G0 Z1.4
G1 F300.0 Z0.0
G1 F800.0 X425.0
G0 Z3.0
G0 X404.9 Y23.5
G0 Z1.4
G1 F300.0 Z0.0
G1 F800.0 Y-33.5
G0 Z3.0
G0 X421.0 Y-30.1
G0 Z1.4
G1 F300.0 Z0.0
G1 F800.0 X425.0
G0 Z3.0
G0 X421.1 Y-30.0
G0 Z1.4
G1 F300.0 Z0.0
G1 F800.0 Y-10.0
G0 Z3.0
G0 X421.0 Y-10.1
G0 Z1.4
G1 F300.0 Z0.0
G1 F800.0 X425.0
G0 Z3.0
G0 X424.9 Y0.0
G0 Z1.4
G1 F300.0 Z0.0
G1 F800.0 Y-10.0
G0 Z3.0
G0 X421.0 Y-0.1
G0 Z1.4
G1 F300.0 Z0.0
G1 F800.0 X425.0
G0 Z3.0
G0 X421.1 Y0.0
G0 Z1.4
G1 F300.0 Z0.0
G1 F800.0 Y20.0
G0 Z3.0
G0 X425.1 Y-40.0
G0 Z1.4
G1 F300.0 Z0.0
G1 F800.0 Y-30.0
G0 Z3.0
G0 X301.0 Y-33.6
G0 Z1.4
G1 F300.0 Z0.0
G1 F800.0 X405.0
G0 Z3.0
G0 X301.0 Y23.4
G0 Z1.4
G1 F300.0 Z0.0
G1 F800.0 X405.0
G0 Z3.0
G0 X424.9 Y107.0
G0 Z1.4
G1 F300.0 Z0.0
G1 F800.0 Y82.0
G0 Z3.0
G0 X300.9 Y23.5
G0 Z1.4
G1 F300.0 Z0.0
G1 F800.0 Y-33.5
G0 Z3.0
G0 X281.0 Y-21.1
G0 Z1.4
G1 F300.0 Z0.0
G3 F800.0 Y-18.9 I0.0 J1.1
G1 X261.0
G3 Y-21.1 I0.0 J-1.1
G0 Z3.0
G0 X256.0
G0 Z1.4
G1 F300.0 Z0.0
G3 F800.0 Y-18.9 I0.0 J1.1
G1 X236.0
G3 Y-21.1 I0.0 J-1.1
G0 Z3.0
G0 Y-14.9
G0 Z1.4
G1 F300.0 Z0.0
G3 F800.0 Y-17.1 I0.0 J-1.1
G0 Z3.0
G0 Y-10.9
G0 Z1.4
G1 F300.0 Z0.0
G3 F800.0 Y-13.1 I0.0 J-1.1
G0 Z3.0
G0 Y-6.9
G0 Z1.4
G1 F300.0 Z0.0
G3 F800.0 Y-9.1 I0.0 J-1.1
G0 Z3.0
G0 Y-2.9
G0 Z1.4
G1 F300.0 Z0.0
G3 F800.0 Y-5.1 I0.0 J-1.1
G0 Z3.0
G0 Y1.1
G0 Z1.4
G1 F300.0 Z0.0
G3 F800.0 Y-1.1 I0.0 J-1.1
G0 Z3.0
G0 Y5.1
G0 Z1.4
G1 F300.0 Z0.0
G3 F800.0 Y2.9 I0.0 J-1.1
G0 Z3.0
G0 Y9.1
G0 Z1.4
G1 F300.0 Z0.0
G3 F800.0 Y6.9 I0.0 J-1.1
G0 Z3.0
G0 Y13.1
G0 Z1.4
G1 F300.0 Z0.0
G3 F800.0 Y10.9 I0.0 J-1.1
G0 Z3.0
G0 X221.1 Y0.0
G0 Z1.4
G1 F300.0 Z0.0
G1 F800.0 Y20.0
G0 Z3.0
G0 X208.1 Y13.0
G0 Z1.4
G1 F300.0 Z0.0
G1 F800.0 Y28.0
G0 Z3.0
G0 X217.0 Y36.9
G0 Z1.4
G1 F300.0 Z0.0
G1 F800.0 X425.0
G0 Z3.0
G0 X281.0 Y13.1
G0 Z1.4
G1 F300.0 Z0.0
G1 F800.0 X261.0
G3 Y10.9 I0.0 J-1.1
G0 Z3.0
G0 Y9.1
G0 Z1.4
G1 F300.0 Z0.0
G3 F800.0 Y6.9 I0.0 J-1.1
G0 Z3.0
G0 Y5.1
G0 Z1.4
G1 F300.0 Z0.0
G3 F800.0 Y2.9 I0.0 J-1.1
G0 Z3.0
G0 Y1.1
G0 Z1.4
G1 F300.0 Z0.0
G3 F800.0 Y-1.1 I0.0 J-1.1
G0 Z3.0
G0 Y-2.9
G0 Z1.4
G1 F300.0 Z0.0
G3 F800.0 Y-5.1 I0.0 J-1.1
G0 Z3.0
G0 Y-6.9
G0 Z1.4
G1 F300.0 Z0.0
G3 F800.0 Y-9.1 I0.0 J-1.1
G0 Z3.0
G0 Y-10.9
G0 Z1.4
G1 F300.0 Z0.0
G3 F800.0 Y-13.1 I0.0 J-1.1
G0 Z3.0
G0 Y-14.9
G0 Z1.4
G1 F300.0 Z0.0
G3 F800.0 Y-17.1 I0.0 J-1.1
G0 Z3.0
G0 X256.0
G0 Z1.4
G1 F300.0 Z0.0
G3 F800.0 Y-14.9 I0.0 J1.1
G1 X236.0
G0 Z3.0
G0 X221.0 Y-9.9
G0 Z1.4
G1 F300.0 Z0.0
G1 F800.0 X217.0
G0 Z3.0
G0 X208.1 Y-12.0
G0 Z1.4
G1 F300.0 Z0.0
G1 F800.0 Y3.0
G0 Z3.0
G0 X208.0 Y2.9
G0 Z1.4
G1 F300.0 Z0.0
G1 F800.0 X212.0
G0 Z3.0
G0 X212.1 Y3.0
G0 Z1.4
G1 F300.0 Z0.0
G1 F800.0 Y13.0
G0 Z3.0
G0 X208.0 Y12.9
G0 Z1.4
G1 F300.0 Z0.0
G1 F800.0 X212.0
G0 Z3.0
G0 X216.9 Y0.0
G0 Z1.4
G1 F300.0 Z0.0
G1 F800.0 Y-10.0
G0 Z3.0
G0 X208.0 Y-12.1
G0 Z1.4
G1 F300.0 Z0.0
G1 F800.0 X212.0
G0 Z3.0
G0 X212.1 Y-22.0
G0 Z1.4
G1 F300.0 Z0.0
G1 F800.0 Y-12.0
G0 Z3.0
G0 X208.0 Y-22.1
G0 Z1.4
G1 F300.0 Z0.0
G1 F800.0 X212.0
G0 Z3.0
G0 X221.0 Y-29.9
G0 Z1.4
G1 F300.0 Z0.0
G1 F800.0 X217.0
G0 Z3.0
G0 X221.1 Y-30.0
G0 Z1.4
G1 F300.0 Z0.0
G1 F800.0 Y-10.0
G0 Z3.0
G0 X221.0 Y0.1
G0 Z1.4
G1 F300.0 Z0.0
G1 F800.0 X217.0
G0 Z3.0
G0 X217.1 Y37.0
G0 Z1.4
G1 F300.0 Z0.0
G1 F800.0 Y62.0
G0 Z3.0
G0 X217.0 Y106.9
G0 Z1.4
G1 F300.0 Z0.0
G1 F800.0 X425.0
G0 Z3.0
G0 X281.0 Y11.1
G0 Z1.4
G1 F300.0 Z0.0
G1 F800.0 X261.0
G0 Z3.0
G0 X256.0
G0 Z1.4
G1 F300.0 Z0.0
G1 F800.0 X236.0
G0 Z3.0
G0 X256.0 Y10.9
G0 Z1.4
G1 F300.0 Z0.0
G3 F800.0 Y13.1 I0.0 J1.1
G1 X236.0
G0 Z3.0
G0 X256.0 Y9.1
G0 Z1.4
G1 F300.0 Z0.0
G1 F800.0 X236.0
G0 Z3.0
G0 X256.0 Y7.1
G0 Z1.4
G1 F300.0 Z0.0
G1 F800.0 X236.0
G0 Z3.0
G0 X256.0 Y6.9
G0 Z1.4
G1 F300.0 Z0.0
G3 F800.0 Y9.1 I0.0 J1.1
G0 Z3.0
G0 Y5.1
G0 Z1.4
G1 F300.0 Z0.0
G1 F800.0 X236.0
G0 Z3.0
G0 X256.0 Y3.1
G0 Z1.4
G1 F300.0 Z0.0
G1 F800.0 X236.0
G0 Z3.0
G0 X256.0 Y2.9
G0 Z1.4
G1 F300.0 Z0.0
G3 F800.0 Y5.1 I0.0 J1.1
G0 Z3.0
G0 Y1.1
G0 Z1.4
G1 F300.0 Z0.0
G1 F800.0 X236.0
G0 Z3.0
G0 X256.0 Y-0.9
G0 Z1.4
G1 F300.0 Z0.0
G1 F800.0 X236.0
G0 Z3.0
G0 X256.0 Y-1.1
G0 Z1.4
G1 F300.0 Z0.0
G3 F800.0 Y1.1 I0.0 J1.1
G0 Z3.0
G0 Y-2.9
G0 Z1.4
G1 F300.0 Z0.0
G1 F800.0 X236.0
G0 Z3.0
G0 X256.0 Y-4.9
G0 Z1.4
G1 F300.0 Z0.0
G1 F800.0 X236.0
G0 Z3.0
G0 X256.0 Y-5.1
G0 Z1.4
G1 F300.0 Z0.0
G3 F800.0 Y-2.9 I0.0 J1.1
G0 Z3.0
G0 Y-6.9
G0 Z1.4
G1 F300.0 Z0.0
G1 F800.0 X236.0
G0 Z3.0
G0 X256.0 Y-8.9
G0 Z1.4
G1 F300.0 Z0.0
G1 F800.0 X236.0
G0 Z3.0
G0 X256.0 Y-9.1
G0 Z1.4
G1 F300.0 Z0.0
G3 F800.0 Y-6.9 I0.0 J1.1
G0 Z3.0
G0 Y-10.9
G0 Z1.4
G1 F300.0 Z0.0
G1 F800.0 X236.0
G0 Z3.0
G0 X256.0 Y-12.9
G0 Z1.4
G1 F300.0 Z0.0
G1 F800.0 X236.0
G0 Z3.0
G0 X256.0 Y-13.1
G0 Z1.4
G1 F300.0 Z0.0
G3 F800.0 Y-10.9 I0.0 J1.1
G0 Z3.0
G0 Y-16.9
G0 Z1.4
G1 F300.0 Z0.0
G1 F800.0 X236.0
G0 Z3.0
G0 X256.0 Y-20.9
G0 Z1.4
G1 F300.0 Z0.0
G1 F800.0 X236.0
G0 Z3.0
G0 X217.1 Y-40.0
G0 Z1.4
G1 F300.0 Z0.0
G1 F800.0 Y-30.0
G0 Z3.0
G0 X217.0 Y-40.1
G0 Z1.4
G1 F300.0 Z0.0
G1 F800.0 X425.0
G0 Z3.0
G0 X281.0 Y-20.9
G0 Z1.4
G1 F300.0 Z0.0
G1 F800.0 X261.0
G0 Z3.0
G0 X281.0 Y-17.1
G0 Z1.4
G1 F300.0 Z0.0
G3 F800.0 Y-14.9 I0.0 J1.1
G1 X261.0
G0 Z3.0
G0 X281.0 Y-13.1
G0 Z1.4
G1 F300.0 Z0.0
G3 F800.0 Y-10.9 I0.0 J1.1
G1 X261.0
G0 Z3.0
G0 X281.0 Y-9.1
G0 Z1.4
G1 F300.0 Z0.0
G3 F800.0 Y-6.9 I0.0 J1.1
G1 X261.0
G0 Z3.0
G0 X281.0 Y-5.1
G0 Z1.4
G1 F300.0 Z0.0
G3 F800.0 Y-2.9 I0.0 J1.1
G1 X261.0
G0 Z3.0
G0 X281.0 Y-1.1
G0 Z1.4
G1 F300.0 Z0.0
G3 F800.0 Y1.1 I0.0 J1.1
G1 X261.0
G0 Z3.0
G0 X281.0 Y2.9
G0 Z1.4
G1 F300.0 Z0.0
G3 F800.0 Y5.1 I0.0 J1.1
G1 X261.0
G0 Z3.0
G0 X281.0 Y6.9
G0 Z1.4
G1 F300.0 Z0.0
G3 F800.0 Y9.1 I0.0 J1.1
G1 X261.0
G0 Z3.0
G0 X281.0 Y10.9
G0 Z1.4
G1 F300.0 Z0.0
G3 F800.0 Y13.1 I0.0 J1.1
G0 Z3.0
G0 Y7.1
G0 Z1.4
G1 F300.0 Z0.0
G1 F800.0 X261.0
G0 Z3.0
G0 X281.0 Y3.1
G0 Z1.4
G1 F300.0 Z0.0
G1 F800.0 X261.0
G0 Z3.0
G0 X281.0 Y-0.9
G0 Z1.4
G1 F300.0 Z0.0
G1 F800.0 X261.0
G0 Z3.0
G0 X281.0 Y-4.9
G0 Z1.4
G1 F300.0 Z0.0
G1 F800.0 X261.0
G0 Z3.0
G0 X281.0 Y-8.9
G0 Z1.4
G1 F300.0 Z0.0
G1 F800.0 X261.0
G0 Z3.0
G0 X281.0 Y-12.9
G0 Z1.4
G1 F300.0 Z0.0
G1 F800.0 X261.0
G0 Z3.0
G0 X281.0 Y-16.9
G0 Z1.4
G1 F300.0 Z0.0
G1 F800.0 X261.0
G0 Z3.0
G0 X208.1 Y-37.0
G0 Z1.4
G1 F300.0 Z0.0
G1 F800.0 Y-22.0
G0 Z3.0
G0 X208.0 Y-37.1
G0 Z1.4
G1 F300.0 Z0.0
G1 F800.0 X212.0
G0 Z3.0
G0 X212.1 Y-47.0
G0 Z1.4
G1 F300.0 Z0.0
G1 F800.0 Y-37.0
G0 Z3.0
G0 X267.7457 Y-86.8805
G0 Z1.4
G1 F300.0 Z0.0
G1 F800.0 X262.0023 Y-111.2118
G0 Z3.0
G0 X262.0767 Y-111.3321
G0 Z1.4
G1 F300.0 Z0.0
G1 F800.0 X265.9697 Y-112.2511
G0 Z3.0
G0 X265.8953 Y-112.1308
G0 Z1.4
G1 F300.0 Z0.0
G1 F800.0 X261.3006 Y-131.5958
G0 Z3.0
G0 X261.4209 Y-131.5215
G0 Z1.4
G1 F300.0 Z0.0
G1 F800.0 X257.5279 Y-130.6026
G0 Z3.0
G0 X257.4076 Y-130.6769
G0 Z1.4
G1 F300.0 Z0.0
G1 F800.0 X251.6643 Y-155.0082
G0 Z3.0
G0 X251.7846 Y-154.9339
G0 Z1.4
G1 F300.0 Z0.0
G1 F800.0 X245.945 Y-153.5555
G0 Z3.0
G0 X245.8247 Y-153.6298
G0 Z1.4
G1 F300.0 Z0.0
G1 F800.0 X244.9058 Y-157.5228
G0 Z3.0
G0 X245.0261 Y-157.4485
G0 Z1.4
G1 F300.0 Z0.0
G1 F800.0 X225.561 Y-152.8538
G0 Z3.0
G0 X225.6354 Y-152.9741
G0 Z1.4
G1 F300.0 Z0.0
G1 F800.0 X226.5543 Y-149.0811
G0 Z3.0
G0 X226.48 Y-148.9608
G0 Z1.4
G1 F300.0 Z0.0
G1 F800.0 X216.7474 Y-146.6635
G0 Z3.0
G0 X216.6271 Y-146.7378
G0 Z1.4
G1 F300.0 Z0.0
G1 F800.0 X215.7082 Y-150.6308
G0 Z3.0
G0 X215.8285 Y-150.5565
G0 Z1.4
G1 F300.0 Z0.0
G1 F800.0 X196.3634 Y-145.9618
G0 Z3.0
G0 X196.4378 Y-146.0821
G0 Z1.4
G1 F300.0 Z0.0
G1 F800.0 X197.3567 Y-142.1891
G0 Z3.0
G0 X197.2824 Y-142.0688
G0 Z1.4
G1 F300.0 Z0.0
G1 F800.0 X187.5498 Y-139.7714
G1 F300.0 X187.6262 Y-139.8573
G1 F800.0 X186.4838 Y-129.9228
G0 Z3.0
G0 X186.3731 Y-129.8349
G0 Z1.4
G1 F300.0 Z0.0
G1 F800.0 X182.3992 Y-130.2918
G0 Z3.0
G0 X182.51 Y-130.3797
G0 Z1.4
G1 F300.0 Z0.0
G1 F800.0 X181.3676 Y-120.4452
G0 Z3.0
G0 X181.2797 Y-120.556
G0 Z1.4
G1 F300.0 Z0.0
G1 F800.0 X185.2535 Y-120.099
G0 Z3.0
G0 X185.3414 Y-119.9883
G0 Z1.4
G1 F300.0 Z0.0
G1 F800.0 X184.1991 Y-110.0537
G0 Z3.0
G0 X184.0883 Y-109.9658
G0 Z1.4
G1 F300.0 Z0.0
G1 F800.0 X180.1145 Y-110.4228
G0 Z3.0
G0 X180.2201 Y-110.5556
G0 Z1.4
G1 F300.0 Z0.0
G1 F800.0 X181.5615 Y-106.7872
G0 Z3.0
G0 X181.5008 Y-106.6595
G0 Z1.4
G1 F300.0 Z0.0
G1 F800.0 X172.0798 Y-103.3061
G0 Z3.0
G0 X171.9521 Y-103.3668
G0 Z1.4
G1 F300.0 Z0.0
G1 F800.0 X170.6107 Y-107.1352
G0 Z3.0
G0 X170.7385 Y-107.0745
G0 Z1.4
G1 F300.0 Z0.0
G1 F800.0 X156.607 Y-102.0444
G0 Z3.0
G0 X156.6677 Y-102.1722
G0 Z1.4
G1 F300.0 Z0.0
G1 F800.0 X158.009 Y-98.4038
G0 Z3.0
G0 X157.9483 Y-98.2761
G0 Z1.4
G1 F300.0 Z0.0
G1 F800.0 X148.5274 Y-94.9227
G0 Z3.0
G0 X148.3996 Y-94.9834
G0 Z1.4
G1 F300.0 Z0.0
G1 F800.0 X147.0583 Y-98.7517
G0 Z3.0
G0 X147.186 Y-98.6911
G0 Z1.4
G1 F300.0 Z0.0
G1 F800.0 X133.0545 Y-93.661
G0 Z3.0
G0 X133.1152 Y-93.7887
G0 Z1.4
G1 F300.0 Z0.0
G1 F800.0 X134.4566 Y-90.0204
G0 Z3.0
G0 X134.3959 Y-89.8926
G0 Z1.4
G1 F300.0 Z0.0
G1 F800.0 X124.9749 Y-86.5392
G0 Z3.0
G0 X124.8472 Y-86.5999
G0 Z1.4
G1 F300.0 Z0.0
G1 F800.0 X123.5058 Y-90.3683
G0 Z3.0
G0 X123.6336 Y-90.3076
G0 Z1.4
G1 F300.0 Z0.0
G1 F800.0 X109.5021 Y-85.2776
G0 Z3.0
G0 X109.5628 Y-85.4053
G0 Z1.4
G1 F300.0 Z0.0
G1 F800.0 X110.9041 Y-81.6369
G0 Z3.0
G0 X110.8434 Y-81.5092
G0 Z1.4
G1 F300.0 Z0.0
G1 F800.0 X105.1909 Y-79.4971
G0 Z3.0
G0 X105.2515 Y-79.6249
G0 Z1.4
G1 F300.0 Z0.0
G1 F800.0 X108.6049 Y-70.2039
G0 Z3.0
G0 X108.5442 Y-70.0762
G0 Z1.4
G1 F300.0 Z0.0
G1 F800.0 X104.7758 Y-68.7348
G0 Z3.0
G0 X104.8365 Y-68.8625
G0 Z1.4
G1 F300.0 Z0.0
G1 F800.0 X108.1899 Y-59.4416
G0 Z3.0
G0 X108.0622 Y-59.5022
G0 Z1.4
G1 F300.0 Z0.0
G1 F800.0 X111.8305 Y-60.8436
G0 Z3.0
G0 X111.9583 Y-60.7829
G0 Z1.4
G1 F300.0 Z0.0
G1 F800.0 X115.3117 Y-51.3619
G1 F300.0 X115.1948 Y-51.4258
G1 F800.0 X267.8203 Y-87.0009
G0 Z3.0
G0 X168.5029 Y-117.0398
G0 Z1.4
G1 F300.0 Z0.0
G1 F800.0 X165.8906 Y-126.6926
G0 Z3.0
G0 X165.961 Y-126.8153
G0 Z1.4
G1 F300.0 Z0.0
G1 F800.0 X169.8221 Y-127.8602
G0 Z3.0
G0 X169.7517 Y-127.7375
G0 Z1.4
G1 F300.0 Z0.0
G1 F800.0 X167.1395 Y-137.3903
G0 Z3.0
G0 X167.2621 Y-137.3199
G0 Z1.4
G1 F300.0 Z0.0
G1 F800.0 X163.401 Y-136.275
G0 Z3.0
G0 X163.2784 Y-136.3454
G0 Z1.4
G1 F300.0 Z0.0
G1 F800.0 X160.6661 Y-145.9982
G1 F300.0 X160.7777 Y-145.9254
G1 F800.0 X5.8519 Y-122.3007
G0 Z3.0
G0 X5.9357 Y-122.4149
G0 Z1.4
G1 F300.0 Z0.0
G1 F800.0 X9.7737 Y-97.7113
G0 Z3.0
G0 X9.6902 Y-97.5971
G0 Z1.4
G1 F300.0 Z0.0
G1 F800.0 X5.7377 Y-96.983
G0 Z3.0
G0 X5.8211 Y-97.0972
G0 Z1.4
G1 F300.0 Z0.0
G1 F800.0 X8.8916 Y-77.3343
G0 Z3.0
G0 X8.7774 Y-77.4177
G0 Z1.4
G1 F300.0 Z0.0
G1 F800.0 X12.73 Y-78.0318
G0 Z3.0
G0 X12.8441 Y-77.9484
G0 Z1.4
G1 F300.0 Z0.0
G1 F800.0 X16.6822 Y-53.2447
G0 Z3.0
G0 X16.568 Y-53.3282
G0 Z1.4
G1 F300.0 Z0.0
G1 F800.0 X22.4969 Y-54.2493
G0 Z3.0
G0 X22.611 Y-54.1659
G0 Z1.4
G1 F300.0 Z0.0
G1 F800.0 X23.2251 Y-50.2133
G0 Z3.0
G0 X23.111 Y-50.2967
G0 Z1.4
G1 F300.0 Z0.0
G1 F800.0 X42.8739 Y-53.3672
G0 Z3.0
G0 X42.7904 Y-53.253
G0 Z1.4
G1 F300.0 Z0.0
G1 F800.0 X42.1763 Y-57.2056
G0 Z3.0
G0 X42.2598 Y-57.3198
G0 Z1.4
G1 F300.0 Z0.0
G1 F800.0 X52.1412 Y-58.855
G0 Z3.0
G0 X52.2554 Y-58.7715
G0 Z1.4
G1 F300.0 Z0.0
G1 F800.0 X52.8695 Y-54.8189
G0 Z3.0
G0 X52.7553 Y-54.9024
G0 Z1.4
G1 F300.0 Z0.0
G1 F800.0 X72.5182 Y-57.9728
G0 Z3.0
G0 X72.4348 Y-57.8586
G0 Z1.4
G1 F300.0 Z0.0
G1 F800.0 X71.8207 Y-61.8112
G0 Z3.0
G0 X71.9041 Y-61.9254
G0 Z1.4
G1 F300.0 Z0.0
G1 F800.0 X81.7856 Y-63.4606
G1 F300.0 X81.7028 Y-63.3809
G1 F800.0 X83.6126 Y-73.1968
G0 Z3.0
G0 X83.7299 Y-73.2759
G0 Z1.4
G1 F300.0 Z0.0
G1 F800.0 X87.6562 Y-72.512
G0 Z3.0
G0 X87.539 Y-72.4329
G0 Z1.4
G1 F300.0 Z0.0
G1 F800.0 X89.4488 Y-82.2488
G0 Z3.0
G0 X89.5278 Y-82.1316
G0 Z1.4
G1 F300.0 Z0.0
G1 F800.0 X85.6015 Y-82.8955
G0 Z3.0
G0 X85.5224 Y-83.0128
G0 Z1.4
G1 F300.0 Z0.0
G1 F800.0 X87.4322 Y-92.8287
G0 Z3.0
G0 X87.5495 Y-92.9078
G0 Z1.4
G1 F300.0 Z0.0
G1 F800.0 X91.4759 Y-92.1438
G0 Z3.0
G0 X91.3602 Y-92.0196
G0 Z1.4
G1 F300.0 Z0.0
G1 F800.0 X90.3153 Y-95.8807
G0 Z3.0
G0 X90.3857 Y-96.0033
G0 Z1.4
G1 F300.0 Z0.0
G1 F800.0 X100.0385 Y-98.6156
G0 Z3.0
G0 X100.1612 Y-98.5452
G0 Z1.4
G1 F300.0 Z0.0
G1 F800.0 X101.2061 Y-94.684
G0 Z3.0
G0 X101.0834 Y-94.7545
G0 Z1.4
G1 F300.0 Z0.0
G1 F800.0 X115.5626 Y-98.6728
G0 Z3.0
G0 X115.4922 Y-98.5502
G0 Z1.4
G1 F300.0 Z0.0
G1 F800.0 X114.4473 Y-102.4113
G0 Z3.0
G0 X114.5177 Y-102.5339
G0 Z1.4
G1 F300.0 Z0.0
G1 F800.0 X124.1705 Y-105.1462
G0 Z3.0
G0 X124.2931 Y-105.0758
G0 Z1.4
G1 F300.0 Z0.0
G1 F800.0 X125.338 Y-101.2147
G0 Z3.0
G0 X125.2154 Y-101.2851
G0 Z1.4
G1 F300.0 Z0.0
G1 F800.0 X139.6945 Y-105.2034
G0 Z3.0
G0 X139.6241 Y-105.0808
G0 Z1.4
G1 F300.0 Z0.0
G1 F800.0 X138.5792 Y-108.9419
G0 Z3.0
G0 X138.6496 Y-109.0645
G0 Z1.4
G1 F300.0 Z0.0
G1 F800.0 X148.3024 Y-111.6768
G0 Z3.0
G0 X148.4251 Y-111.6064
G0 Z1.4
G1 F300.0 Z0.0
G1 F800.0 X149.47 Y-107.7453
G0 Z3.0
G0 X149.3473 Y-107.8157
G0 Z1.4
G1 F300.0 Z0.0
G1 F800.0 X163.8265 Y-111.734
G0 Z3.0
G0 X163.7561 Y-111.6114
G0 Z1.4
G1 F300.0 Z0.0
G1 F800.0 X162.7112 Y-115.4725
G0 Z3.0
G0 X162.7816 Y-115.5951
G0 Z1.4
G1 F300.0 Z0.0
G1 F800.0 X168.5733 Y-117.1625
G0 Z3.0
G0 X72.9992 Y-7.7244
G0 Z1.4
G1 F300.0 Z0.0
G3 F800.0 X75.6 Y-2.0 I-4.9992 J5.7244
G3 X64.2 Y4.5818 I-7.6 J0.0
G3 Y-8.5818 I3.8 J-6.5818
G3 X72.9992 Y-7.7244 I3.8 J6.5818
G0 Z3.0
G0 X68.7269 Y9.9864
G0 Z1.4
G1 F300.0 Z0.0
G3 F800.0 X71.1 Y13.0 I-0.7269 J3.0136
G3 X66.45 Y15.6847 I-3.1 J0.0
G3 Y10.3153 I1.55 J-2.6847
G3 X68.7269 Y9.9864 I1.55 J2.6847
G0 Z3.0
G0 X43.6829 Y0.2169
G0 Z1.4
G1 F300.0 Z0.0
G3 F800.0 X34.95 Y3.2828 I-5.6829 J-2.2169
G3 Y-7.2828 I3.05 J-5.2828
G3 X44.1 Y-2.0 I3.05 J5.2828
G3 X43.6829 Y0.2169 I-6.1 J0.0
G0 Z3.0
G0 X8.0 Y3.1
G0 Z1.4
G1 F300.0 Z0.0
G1 F800.0 X4.0
G0 Z3.0
G0 X3.9 Y13.0
G0 Z1.4
G1 F300.0 Z0.0
G1 F800.0 Y3.0
G0 Z3.0
G0 X8.1 Y13.0
G0 Z1.4
G1 F300.0 Z0.0
G1 F800.0 Y28.0
G0 Z3.0
G0 X3.1 Y42.0
G0 Z1.4
G1 F300.0 Z0.0
G1 F800.0 Y52.0
G0 Z3.0
G0 X7.0 Y52.1
G0 Z1.4
G1 F300.0 Z0.0
G1 F800.0 X3.0
G0 Z3.0
G0 X7.1 Y52.0
G0 Z1.4
G1 F300.0 Z0.0
G1 F800.0 Y62.0
G0 Z3.0
G0 X7.0 Y62.1
G0 Z1.4
G1 F300.0 Z0.0
G1 F800.0 X3.0
G0 Z3.0
G0 Y71.9
G0 Z1.4
G1 F300.0 Z0.0
G1 F800.0 X211.0
G0 Z3.0
G0 X216.9 Y107.0
G0 Z1.4
G1 F300.0 Z0.0
G1 F800.0 Y82.0
G0 Z3.0
G0 X71.9 Y63.5
G0 Z1.4
G1 F300.0 Z0.0
G1 F800.0 Y50.5
G0 Z3.0
G0 X32.0 Y50.4
G0 Z1.4
G1 F300.0 Z0.0
G1 F800.0 X72.0
G0 Z3.0
G0 X32.0 Y63.4
G0 Z1.4
G1 F300.0 Z0.0
G1 F800.0 X72.0
G0 Z3.0
G0 X31.9 Y63.5
G0 Z1.4
G1 F300.0 Z0.0
G1 F800.0 Y50.5
G0 Z3.0
G0 X2.9 Y72.0
G0 Z1.4
G1 F300.0 Z0.0
G1 F800.0 Y62.0
G0 Z3.0
G0 X3.9 Y107.0
G0 Z1.4
G1 F300.0 Z0.0
G1 F800.0 Y97.0
G0 Z3.0
G0 X8.0 Y13.1
G0 Z1.4
G1 F300.0 Z0.0
G1 F800.0 X4.0
G0 Z3.0
G0 X8.0 Y-11.9
G0 Z1.4
G1 F300.0 Z0.0
G1 F800.0 X4.0
G0 Z3.0
G0 X8.1 Y-12.0
G0 Z1.4
G1 F300.0 Z0.0
G1 F800.0 Y3.0
G0 Z3.0
G0 X8.0 Y-21.9
G0 Z1.4
G1 F300.0 Z0.0
G1 F800.0 X4.0
G0 Z3.0
G0 X4.1 Y-22.0
G0 Z1.4
G1 F300.0 Z0.0
G1 F800.0 Y-12.0
G0 Z3.0
G0 X8.0 Y-36.9
G0 Z1.4
G1 F300.0 Z0.0
G1 F800.0 X4.0
G0 Z3.0
G0 X8.1 Y-37.0
G0 Z1.4
G1 F300.0 Z0.0
G1 F800.0 Y-22.0
G0 Z3.0
G0 X4.1 Y-47.0
G0 Z1.4
G1 F300.0 Z0.0
G1 F800.0 Y-37.0
G0 Z3.0
G0 X4.0 Y-47.1
G0 Z1.4
G1 F300.0 Z0.0
G1 F800.0 X212.0
G0 Z3.0
M5
M30
